svgs/ath_movil.svg

<svg width="192" height="192" viewBox="0 0 192 192" fill="none" xmlns="http://www.w3.org/2000/svg">
<path d="M63.8732 71.039H98.5268L112.244 50.1024L98.5268 27H61.7073C43.6585 27 22 44.3268 22 65.2634V101.361M63.8732 71.039C58.8195 71.039 55.2098 73.2049 55.2098 78.9805V114.356C55.2098 120.854 63.8732 122.298 71.0927 122.298V165.615C45.1024 165.615 22 143.956 22 125.185V101.361M63.8732 71.039C42.2146 71.039 28.4976 80.4244 22 101.361" stroke="black" stroke-width="12" stroke-linecap="round" stroke-linejoin="round"/>
<path d="M128.127 121.576H93.4732L79.7561 142.512L93.4732 165.615H130.293C148.341 165.615 170 148.288 170 127.351V91.2536M128.127 121.576C133.18 121.576 136.79 119.41 136.79 113.634V78.2585C136.79 71.761 128.127 70.3171 120.907 70.3171V27C146.898 27 170 48.6585 170 67.4293V91.2536M128.127 121.576C149.785 121.576 163.502 112.19 170 91.2536" stroke="black" stroke-width="12" stroke-linecap="round" stroke-linejoin="round"/>
</svg>

<svg width="192" height="192" viewBox="0 0 192 192" fill="none" xmlns="http://www.w3.org/2000/svg"><path d="M63.873 71.039h34.654l13.717-20.937L98.527 27h-36.82C43.658 27 22 44.327 22 65.263v36.098m41.873-30.322c-5.053 0-8.663 2.166-8.663 7.942v35.375c0 6.498 8.663 7.942 15.883 7.942v43.317c-25.99 0-49.093-21.659-49.093-40.43v-23.824m41.873-30.322c-21.658 0-35.375 9.385-41.873 30.322M128.127 121.576H93.473l-13.717 20.936 13.717 23.103h36.82c18.048 0 39.707-17.327 39.707-38.264V91.254m-41.873 30.322c5.053 0 8.663-2.166 8.663-7.942V78.258c0-6.497-8.663-7.94-15.883-7.94V27C146.898 27 170 48.658 170 67.43v23.824m-41.873 30.322c21.658 0 35.375-9.386 41.873-30.322" stroke="#000" stroke-width="12" stroke-linecap="round" stroke-linejoin="round"/></svg>
